icons/vimeo-fill.svg

<svg xmlns="http://www.w3.org/2000/svg" width="24" height="24" fill="none"><g clip-path="url(#a)"><g><path fill="#121212" d="M1.17297 8.301C0.891972 7.888 0.920972 7.888 1.50097 7.379C2.73297 6.297 3.89497 5.113 5.23697 4.167C6.45197 3.315 8.06297 2.765 9.16397 4.12C10.178 5.369 10.202 7.262 10.459 8.77C10.716 10.334 10.962 11.934 11.51 13.43C11.662 13.851 11.953 14.647 12.478 14.714C13.156 14.807 13.846 13.618 14.161 13.174C14.978 11.994 16.086 10.405 15.946 8.888C15.808 7.276 14.068 7.579 12.98 7.964C13.155 6.155 14.838 4.121 16.46 3.434C18.18 2.72 20.736 2.732 21.6 4.671C22.523 6.773 21.693 9.214 20.688 11.119C19.591 13.187 18.179 15.101 16.67 16.889C15.339 18.477 13.764 20.219 11.78 20.978C9.51297 21.842 8.16997 20.158 7.39797 18.208C6.55497 16.085 6.13597 13.702 5.52797 11.491C5.27197 10.557 4.96797 9.494 4.36097 8.723C3.56897 7.728 2.66897 8.663 1.88697 9.2C1.61797 8.933 1.39597 8.593 1.17297 8.301Z"/></g></g><defs><clipPath id="a"><rect width="24" height="24" fill="white"/></clipPath></defs></svg>

<svg width="24" height="24" fill="none" xmlns="http://www.w3.org/2000/svg"><g clip-path="url(#a)"><path d="M1.173 8.301c-.281-.413-.252-.413.328-.922 1.232-1.082 2.394-2.266 3.736-3.212 1.215-.852 2.826-1.402 3.927-.047 1.014 1.249 1.038 3.142 1.295 4.65.257 1.564.503 3.164 1.051 4.66.152.421.443 1.217.968 1.284.678.093 1.368-1.096 1.683-1.54.817-1.18 1.925-2.769 1.785-4.286-.138-1.612-1.878-1.309-2.966-.924.175-1.809 1.858-3.843 3.48-4.53 1.72-.714 4.276-.702 5.14 1.237.923 2.102.093 4.543-.912 6.448-1.097 2.068-2.509 3.982-4.018 5.77-1.331 1.588-2.906 3.33-4.89 4.089-2.267.864-3.61-.82-4.382-2.77-.843-2.123-1.262-4.506-1.87-6.717-.256-.934-.56-1.997-1.167-2.768-.792-.995-1.692-.06-2.474.477-.269-.267-.491-.607-.714-.899Z" /></g><defs><clipPath id="a"><path fill="#fff" d="M0 0h24v24H0z"/></clipPath></defs></svg>
